X: 1171
T: Sweet Molly.   a Reel.
%R: reel
B: Niel Gow & Sons "Complete Repository" v.1 p.17 #1
Z: 2021 John Chambers <jc:trillian.mit.edu>
N: Key changed from Em to Edor to eliminate all the sharps.
M: C|
L: 1/8
K: Edor
% - - - - - - - - - -
% Voice 1 formatted for proofreading.
V: 1 staves=2
e |\
E/E/E (.B.E) dEBe | d>BAF (DEF).d | E/E/E (.B.E) dEBe | {c}d>BAF TB2{AB}E :| F | Ee-ef gfed | (B/c/d) (.A.F) (DEF).D |
Ee-ef gfed | BdFA TB2{AB}E>F || Ee-e>f {ef}g>fed | (B/c/d) (AF) DEFf/g/ | a>fg>e f>de>c | d>BAF TB2{AB}E |]
% - - - - - - - - - -
% Voice 2 preserves the book's staff layout.
V: 2 clef=bass middle=d
z | e2e2 e2e2 | d2d2 d2d2 | e2e2 e2e2 | b2B2 e2e :| z | e2e2 e2e2 | d2d2 d2d2 |
e2e2 e2e2 | B2B2 E2E2 || e2e2 e2e2 | d2d2 d2d2 | e2e2 e2a2 | b2B2 e2E |]


